!!!COM: Music21
!!!OTL: hornpipe_Rake--The
!!!OMV: hornpipe_Rake--The
**kern
*clefG2
*k[f#]
*G:
*M4/4
=1
8ddL
8cc#X
8ccnJ
4b
8g
=
4d
8g
4b
8g
4ryy
=
4dd
8bL
8ggJ
8ff#L
8ggJ
4ryy
=
8aaL
8gg
8ff#J
4gg
8dd
4ryy
=
4b
8g
4f#
8e
4ryy
=
4f#
8g
4a
8b
4ryy
!!linebreak:original
=
8ccL
8b
8aJ
4dd
8cc#X
4ryy
=
4dd
8ee
4ff#
8dd
4ryy
=
4cc
8a
4b
8g
4ryy
=
4d
8g
4b
8g
4ryy
=
4dd
8bL
8ggJ
8ff#L
8ggJ
4ryy
=
8aaL
8gg
8ff#J
4gg
8dd
4ryy
=
4b
8gL
8bJ
8ccL
8ddJ
4ryy
!!linebreak:original
=
4gg
8dd
4cc
8a
4ryy
=
4f#
8g
4a
8g
4ryy
=
4g
8f#
4.g
4ryy
=
8bL 8dd
8a 8cc#X
8g#XJ 8ccn
4b
8gn
4ryy
=
4d
8g
4b
8g
4ryy
=
4dd
8bL
8ggJ
8ff#L
8ggJ
4ryy
!!linebreak:original
=
8aaL
8gg
8ff#J
4gg
8dd
4ryy
=
4b
8g
4f#
8e
4ryy
=
4f#
8g
4a
8b
4ryy
=
8ccL
8b
8aJ
4dd
8cc#X
4ryy
=
4dd
8ee
4ff#
8dd
4ryy
=
4cc
8a
4b
8g
4ryy
=
4d
8g
4b
8g
4ryy
!!linebreak:original
=
4dd
8bL
8ggJ
8ff#L
8ggJ
4ryy
=
8aaL
8gg
8ff#J
4gg
8dd
4ryy
=
4b
8gL
8bJ
8ccL
8ddJ
4ryy
=
4gg
8dd
4cc
8a
4ryy
=
4f#
8g
4a
8g
4ryy
=
4g
8f#
4.g
4ryy
=
4a
8g
4.f#
4ryy
!!linebreak:original
=
4.d
8d
8f#L
8aJ
4ryy
=
4dd
8cc
4b
8g
4ryy
=
4g
8f#
4.g
4ryy
=
4a
8g
4.f#
4ryy
=
4.d
4dd
8cc#X
4ryy
=
4ee
8dd
4ff#
8ee
4ryy
=
4dd
8cc#X
4.dd
4ryy
!!linebreak:original
=
4a
8g
4.f#
4ryy
=
4.d
8d
8f#L
8aJ
4ryy
=
4dd
8cc
4b
8g
4ryy
=
4g
8f#
4.g
4ryy
=
4a
8g
4f#
8a
4ryy
=
4dd
8ff#
4ee
8dd
4ryy
=
4cc#X
8ee
[2dd
8dd]
=
2cc
2ryy
!!linebreak:original
=
4b
8g
4d
8g
4ryy
=
4b
8g
4dd
8b
4ryy
=
8ggL
8ff#J
8ggL
8aaJ
8ggL
8ff#J
4ryy
=
4gg
8dd
4b
8g
4ryy
=
4f#
8e
4f#
8g
4ryy
=
4a
8bL
8ccJ
8bL
8aJ
4ryy
=
4dd
8cc#X
4dd
8ee
4ryy
!!linebreak:original
=
4ff#
8dd
4cc
8a
4ryy
=
4b
8g
4d
8g
4ryy
=
4b
8g
4dd
8b
4ryy
=
8ggL
8ff#J
8ggL
8aaJ
8ggL
8ff#J
4ryy
=
4gg
8dd
4b
8g
4ryy
=
8bL
8cc
8ddJ
4gg
8dd
4ryy
=
4cc
8a
4f#
8g
4ryy
!!linebreak:original
=
4a
8g
4g
8f#
4ryy
=
2g
2ryy
=
*-
